X: 2
T: Bill Malley's
R: barndance
M: 4/4
L: 1/8
K: Gmaj
D|:G2A BGB|ded BAG|dBG d2G|GBA AGD||G2A BGB|ded B2A|BGD d2D|1 GAG G2D:|2 GAG G2g||:egd g3|ded BGG|ged gBg|dBA Aga||ged dBg|ded B2G/A/|BAG DGD|1 GAG G2g:|2 GAG G2D|


Tune 162	Setting 162

